X: 29759
T: O For I For
R: jig
M: 6/8
K: Gmajor
BdB GBd|cec E2 G|FAF DFA|GBG D2 c|
BdB GBd|cec E2 G|FED AFD|G3 G2:|
ded dBd|gbg d2 g|faf A2 B|cdc B2 d|
ded dBd|gbg d2 g|1 fed cAF|G3 G2:|2 fed afd|g3 g2||

